common/src/main/resources/files/plugins/bigdata/expui/dataproc@20x20.svg

<!--
  - The MIT License (MIT)
  -
  - Copyright (c) 2015-2023 Elior "Mallowigi" Boukhobza
  -
  - Permission is hereby granted, free of charge, to any person obtaining a copy
  - of this software and associated documentation files (the "Software"), to deal
  - in the Software without restriction, including without limitation the rights
  - to use, copy, modify, merge, publish, distribute, sublicense, and/or sell
  - copies of the Software, and to permit persons to whom the Software is
  - furnished to do so, subject to the following conditions:
  -
  - The above copyright notice and this permission notice shall be included in all
  - copies or substantial portions of the Software.
  -
  - THE SOFTWARE IS PROVIDED "AS IS", WITHOUT WARRANTY OF ANY KIND, EXPRESS OR
  - IMPLIED, INCLUDING BUT NOT LIMITED TO THE WARRANTIES OF MERCHANTABILITY,
  - FITNESS FOR A PARTICULAR PURPOSE AND NONINFRINGEMENT. IN NO EVENT SHALL THE
  - AUTHORS OR COPYRIGHT HOLDERS BE LIABLE FOR ANY CLAIM, DAMAGES OR OTHER
  - LIABILITY, WHETHER IN AN ACTION OF CONTRACT, TORT OR OTHERWISE, ARISING FROM,
  - OUT OF OR IN CONNECTION WITH THE SOFTWARE OR THE USE OR OTHER DEALINGS IN THE
  - SOFTWARE.
  -
  -->

<svg width="20px" height="20px" viewBox="0 0 16 16" xmlns="http://www.w3.org/2000/svg">
  <g fill="#64B5F6">
    <path fill-rule="evenodd" clip-rule="evenodd"
          d="M9.24805 5.5C9.24805 5.98241 9.02032 6.41163 8.66651 6.68602L11.0704 8.24531C11.4785 8.51337 11.748 8.97521 11.748 9.5C11.748 10.3284 11.0764 11 10.248 11C9.41962 11 8.74805 10.3284 8.74805 9.5C8.74805 9.46781 8.74906 9.43586 8.75106 9.40418L6.60406 10.7319C6.36131 10.9009 6.06625 11 5.74805 11C4.91962 11 4.24805 10.3284 4.24805 9.5C4.24805 8.67157 4.91962 8 5.74805 8C5.92337 8 6.09166 8.03008 6.24805 8.08535V5.5C6.24805 4.67157 6.91962 4 7.74805 4C8.57648 4 9.24805 4.67157 9.24805 5.5ZM8.24805 5.5C8.24805 5.77614 8.02419 6 7.74805 6C7.67173 6 7.5994 5.9829 7.53468 5.95232L7.42292 5.87987C7.31588 5.78817 7.24805 5.65201 7.24805 5.5C7.24805 5.22386 7.47191 5 7.74805 5C8.02419 5 8.24805 5.22386 8.24805 5.5ZM7.24805 9.1579V6.95824L8.98462 8.08397L7.24805 9.1579ZM6.24805 9.5C6.24805 9.66346 6.16961 9.80861 6.04831 9.89984L5.97089 9.94772C5.90379 9.98118 5.82812 10 5.74805 10C5.47191 10 5.24805 9.77614 5.24805 9.5C5.24805 9.22386 5.47191 9 5.74805 9C6.02419 9 6.24805 9.22386 6.24805 9.5ZM10.748 9.5C10.748 9.77614 10.5241 10 10.248 10C9.97191 10 9.74805 9.77614 9.74805 9.5C9.74805 9.22386 9.97191 9 10.248 9C10.5241 9 10.748 9.22386 10.748 9.5Z"
    />
    <path fill-rule="evenodd" clip-rule="evenodd"
          d="M11.4174 1C11.7762 1 12.1076 1.19229 12.2856 1.50386L15.7142 7.50386C15.8899 7.81129 15.8899 8.18871 15.7142 8.49614L12.2856 14.4961C12.1076 14.8077 11.7762 15 11.4174 15H4.57798C4.21913 15 3.88778 14.8077 3.70974 14.4961L0.281171 8.49614C0.105495 8.18871 0.105495 7.81129 0.281171 7.50386L3.70974 1.50386C3.88778 1.19229 4.21913 1 4.57798 1H11.4174ZM4.57798 14L1.14941 8L4.57799 2L11.4173 2L14.8459 8L11.4173 14L4.57798 14Z"
    />
  </g>
</svg>

<svg xmlns="http://www.w3.org/2000/svg" width="20" height="20" viewBox="0 0 16 16"><g fill="#64B5F6" fill-rule="evenodd" clip-rule="evenodd"><path d="M9.248 5.5c0 .482-.228.912-.581 1.186l2.403 1.56A1.499 1.499 0 0 1 10.248 11a1.5 1.5 0 0 1-1.497-1.596l-2.147 1.328a1.5 1.5 0 1 1-.356-2.647V5.5a1.5 1.5 0 1 1 3 0m-1 0a.5.5 0 0 1-.713.452l-.112-.072A.499.499 0 0 1 7.748 5a.5.5 0 0 1 .5.5m-1 3.658v-2.2l1.737 1.126zm-1 .342a.5.5 0 0 1-.2.4l-.077.048a.5.5 0 1 1 .277-.448m4.5 0a.5.5 0 1 1-1 0 .5.5 0 0 1 1 0"/><path d="M11.417 1a1 1 0 0 1 .869.504l3.428 6a1 1 0 0 1 0 .992l-3.428 6a1 1 0 0 1-.869.504H4.578a1 1 0 0 1-.868-.504l-3.429-6a1 1 0 0 1 0-.992l3.429-6A1 1 0 0 1 4.578 1zM4.578 14 1.149 8l3.429-6h6.84l3.428 6-3.429 6z"/></g></svg>
